X:51
T:The Connaught Man's Rambles
M:6/8
L:1/8
R:jig
K:D
A|:FAA dAA|BAB dAG|FAA Afe|dBB B2A|
FAA dAA|BAB def|gfe dfe|1 dBB B2A:|2 dBB B2g|
|:fbb faa|fef deg|fbb faa|fed e2g|
fbb faa|fef def|gfe dfe|dBB B2g:|
